suite-common/icons/assets/icons/chevronDown.svg

<svg xmlns="http://www.w3.org/2000/svg" xml:space="preserve" fill="none" viewBox="0 0 24 24">
  <path fill="#000" fill-rule="evenodd" d="M4.163 7.59a.766.766 0 0 0-.363.915c.04.126.755.863 3.834 3.949 2.082 2.087 3.866 3.847 3.964 3.91a.6.6 0 0 0 .402.116c.18 0 .26-.023.402-.116.098-.063 1.882-1.823 3.964-3.91 3.079-3.086 3.794-3.823 3.834-3.949.158-.496-.183-.985-.687-.985a1 1 0 0 0-.3.042c-.064.023-1.664 1.592-3.663 3.59L12 14.7l-3.55-3.548c-1.999-1.998-3.599-3.567-3.663-3.59a.94.94 0 0 0-.624.028"/>
</svg>

<svg xmlns="http://www.w3.org/2000/svg" xml:space="preserve" fill="none" viewBox="0 0 24 24"><path d="M4.163 7.590 C 3.841 7.754,3.686 8.145,3.800 8.505 C 3.840 8.631,4.555 9.368,7.634 12.454 C 9.716 14.541,11.500 16.301,11.598 16.364 C 11.740 16.457,11.820 16.480,12.000 16.480 C 12.180 16.480,12.260 16.457,12.402 16.364 C 12.500 16.301,14.284 14.541,16.366 12.454 C 19.445 9.368,20.160 8.631,20.200 8.505 C 20.358 8.009,20.017 7.520,19.513 7.520 C 19.410 7.520,19.275 7.539,19.213 7.562 C 19.149 7.585,17.549 9.154,15.550 11.152 L 12.000 14.700 8.450 11.152 C 6.451 9.154,4.851 7.585,4.787 7.562 C 4.616 7.498,4.316 7.512,4.163 7.590 " stroke="none" fill-rule="evenodd" fill="black"></path></svg>
